build/img/Tungsten_Logo.svg

<svg width="518" height="168" viewBox="0 0 518 168" fill="none" xmlns="http://www.w3.org/2000/svg">
<path d="M69.2 119.7L55.1 155.5L51.7 154.1L68.3 119.3L69.2 119.7Z" fill="#6BBD48"/>
<path d="M60.5 113.9L42.2 138.2L37.4 134.2L58.1 111.9L60.5 113.9Z" fill="#D12767"/>
<path d="M6.20001 108.6L8.30002 114.4L24.3 107.7L22.6 103.4L6.20001 108.6Z" fill="#F9E75C"/>
<path d="M47.7 95.5L26.3 102.2L27.9 106.5L48.8 98.5L47.7 95.5Z" fill="#F9E75C"/>
<path d="M45.3 86.6L0.600006 89V80.7L45.3 83.5V86.6Z" fill="#D12767"/>
<path d="M71 47.1L52.6 7.60003L63.6 3.40002L73.9 46L71 47.1Z" fill="#305BA7"/>
<path d="M83.9 46L82.5 0H88.7L87 46H83.9Z" fill="#6BBD48"/>
<path d="M102.8 51.8L116.9 24.5L122.3 27.6L105.5 53.4L102.8 51.8Z" fill="#744E9F"/>
<path d="M112.9 60.1L145.7 30.8L149.4 35.6L114.6 62.5L112.9 60.1Z" fill="#305BA7"/>
<path d="M120.7 74L164.4 62L162.7 56.2L120 71.7L120.7 74Z" fill="#F9E75C"/>
<path d="M123.3 79.7L159.7 76.6L159 70.5L123.1 78.1L123.3 79.7Z" fill="#744E9F"/>
<path d="M122.1 87.4L166 89.1V82.9L122.1 84.3V87.4Z" fill="#D12767"/>
<path d="M113 110.3L144.8 139.5L147.8 136.5L113.6 109.6L113 110.3Z" fill="#6BBD48"/>
<path d="M102.3 118.5L99.6 120.1L115.5 149.8L120.9 146.7L102.3 118.5Z" fill="#33BFC8"/>
<path d="M97.7 120L94.8 121.1L97.1 128.2L100.5 127.1L97.7 120Z" fill="#D12767"/>
<path d="M114.4 162.2L101.5 129.3L97.9 130.7L108.6 164.3L114.4 162.2Z" fill="#D12767"/>
<path d="M88.3 122.7L94.3 165.9L100.4 164.8L90.4 122.5L88.3 122.7Z" fill="#DB5937"/>
<path d="M42.9 45.6L24.6 28.9L20.6 33.7L40 48.9L42.9 45.6Z" fill="#33BFC8"/>
<path d="M46.1 48.4L43.2 51.5L54.1 60.2L56.1 57.8L46.1 48.4Z" fill="#33BFC8"/>
<path d="M75.8 17.8L75 7.40002L67.8 8.70003L70.6 18.7L75.8 17.8Z" fill="black"/>
<path d="M76.4 23.7L71.6 24.6L76.4 49.2L78.8 48.7L76.4 23.7Z" fill="black"/>
<path d="M114.2 14.7L116.4 9.50003L110.5 7.40002L108.8 12.7L114.2 14.7Z" fill="#F9E75C"/>
<path d="M107.8 15.6L97.1 49.2L99.4 50.2L113.1 17.6L107.8 15.6Z" fill="#F9E75C"/>
<path d="M120.9 46.2L142.3 23.3L137.5 19.3L117.7 43.5L120.9 46.2Z" fill="#D12767"/>
<path d="M114.4 47.6L108.2 55.5L110.6 57.6L117.3 50.1L114.4 47.6Z" fill="#D12767"/>
<path d="M138 93.2L121.6 90.8L121 93.9L137.4 97.4L138 93.2Z" fill="#DB5937"/>
<path d="M143.8 94L143.3 98.7L164 103.2L165.1 97.1L143.8 94Z" fill="#DB5937"/>
<path d="M63.4 121.8L65.9 117.6L63.3 116.1L60.7 120.1L63.4 121.8Z" fill="#33BFC8"/>
<path d="M54.9 137.8L62.1 124.1L59.2 122.5L50.9 135.6L54.9 137.8Z" fill="#33BFC8"/>
<path d="M47.8 140.5L39.8 153.3L45.2 156.4L52.2 143L47.8 140.5Z" fill="#33BFC8"/>
<path d="M38.7 108.2L10.1 123.2L13.2 128.6L40.6 111.6L38.7 108.2Z" fill="#DB5937"/>
<path d="M109.5 113.8L108.2 114.8L133.5 148L138.3 144L109.5 113.8Z" fill="#305BA7"/>
<path d="M50 102.2L43.2 105.5L44.6 107.8L51.2 104.1L50 102.2Z" fill="#DB5937"/>
<path d="M52 23.6L48 25.9L64.2 50.6L65.7 49.8L52 23.6Z" fill="#F9E75C"/>
<path d="M149.6 120.5L146.6 125.4L152.9 129.3L156 123.9L149.6 120.5Z" fill="#F9E75C"/>
<path d="M71.3 122.2L59.8 164.6L56 163.4L70.4 121.9L71.3 122.2Z" fill="black"/>
<path d="M51.6 63.6L15.8 40.2L12 46.6L50.1 66L51.6 63.6Z" fill="#DB5937"/>
<path d="M97.9 35.9L104.6 6.50002L98.4 5.40002L94.4 35.3L97.9 35.9Z" fill="#D12667"/>
<path d="M19.3 56.7L16.7 63.3L49.3 72.5L49.8 70.3999L19.3 56.7Z" fill="#6BBD48"/>
<path d="M12.8 98.9L33.5 94.7L32.6 90.6L11.8 93.4L12.8 98.9Z" fill="black"/>
<path d="M74.4 128.5L65.6 166.5L74.5 167.9L78.3 129.1L74.4 128.5Z" fill="#744E9F"/>
<path d="M152.2 107.2L120.3 96.8L119.2 99.8L150.5 112.5L152.2 107.2Z" fill="black"/>
<path d="M121.4 65.8L159 50.5L153.1 39.2L119.6 62.2L121.4 65.8Z" fill="#33BFC8"/>
<path d="M59.6 50.2L38.3 20.4L30.8 26.5L56.6 52.4L59.6 50.2Z" fill="#D12767"/>
<path d="M41.5 89.4L35.1 90.3L36 94.2L42.2 92.8L41.5 89.4Z" fill="black"/>
<path d="M41.7 72.7L6.30001 65.1L5.60001 70.9L41.4 75.1L41.7 72.7Z" fill="#744E9F"/>
<path d="M123.3 106.4L121.5 109.5L142.5 122.8L145.3 118.2L123.3 106.4Z" fill="#F9E75C"/>
<path d="M50.4 107.5L19 131.8L23 136.6L52.5 110.2L50.4 107.5Z" fill="#305BA7"/>
<path d="M85.3 155.9L84.2 120.2H82.4L81 155.9H85.3Z" fill="#305BA7"/>
<path d="M189.5 68.3001C189.2 68.3001 188.9 68.2001 188.6 67.9001C188.3 67.7001 188.2 67.4001 188.2 67.0001C188.2 66.7001 188.3 66.4001 188.6 66.1001C188.9 65.9001 189.2 65.7001 189.5 65.7001H220.8C221.1 65.7001 221.4 65.8001 221.7 66.1001C222 66.3001 222.1 66.6001 222.1 67.0001C222.1 67.4001 222 67.7001 221.7 67.9001C221.4 68.1001 221.1 68.2001 220.8 68.2001H189.5V68.3001ZM205.1 111C204.7 111 204.4 110.9 204.2 110.6C204 110.3 203.8 110 203.8 109.7V67.4001H206.4V109.7C206.4 110 206.3 110.3 206 110.6C205.8 110.9 205.5 111 205.1 111Z" fill="#1A1A1A"/>
<path d="M263.4 65.8C263.8 65.8 264.1 65.9 264.3 66.2C264.5 66.5 264.7 66.8001 264.7 67.1001V95C264.7 98.1 263.9 100.8 262.4 103.4C260.9 105.9 258.9 107.9 256.4 109.4C253.9 110.9 251.1 111.7 248.1 111.7C245 111.7 242.3 110.9 239.7 109.4C237.2 107.9 235.2 105.9 233.7 103.4C232.2 100.9 231.4 98.1 231.4 95V67.1001C231.4 66.8001 231.5 66.5 231.8 66.2C232 65.9 232.4 65.8 232.8 65.8C233.2 65.8 233.5 65.9 233.8 66.2C234.1 66.5 234.2 66.8001 234.2 67.1001V95C234.2 97.6 234.8 99.9001 236.1 102.1C237.3 104.2 239 105.9 241.2 107.2C243.3 108.5 245.7 109.1 248.2 109.1C250.8 109.1 253.1 108.5 255.2 107.2C257.3 105.9 259 104.2 260.3 102.1C261.6 100 262.2 97.6 262.2 95V67.1001C262.2 66.8001 262.3 66.5 262.6 66.2C262.7 66 263 65.8 263.4 65.8Z" fill="#1A1A1A"/>
<path d="M310.9 65.8C311.3 65.8 311.6 65.9 311.8 66.2C312 66.4 312.1 66.7001 312.1 67.1001V109.6C312.1 110.1 312 110.4 311.7 110.7C311.4 110.9 311.1 111.1 310.8 111.1C310.6 111.1 310.4 111.1 310.3 111C310.1 110.9 309.9 110.8 309.8 110.6L279.9 69.7L280.8 69.2V110C280.8 110.3 280.7 110.6 280.4 110.8C280.2 111 279.9 111.1 279.5 111.1C279.1 111.1 278.8 111 278.6 110.8C278.4 110.6 278.3 110.3 278.3 110V67.2C278.3 66.7 278.4 66.4 278.7 66.2C279 66 279.2 65.9 279.5 65.9C279.7 65.9 279.8 65.9 280 66C280.2 66.1 280.3 66.2 280.5 66.4L310.3 107L309.8 108.3V67.1001C309.8 66.8001 309.9 66.5 310.2 66.2C310.3 65.9 310.6 65.8 310.9 65.8Z" fill="#1A1A1A"/>
<path d="M345.6 111.6C342.2 111.6 339.2 111 336.3 109.9C333.5 108.8 331 107.1 328.9 105.1C326.8 103 325.2 100.6 324.1 97.7001C323 94.9001 322.4 91.8001 322.4 88.4001C322.4 85.0001 323 81.9001 324.1 79.1001C325.2 76.3001 326.9 73.8001 328.9 71.7001C331 69.6001 333.4 68.0001 336.3 66.9001C339.1 65.8001 342.2 65.2001 345.6 65.2001C348 65.2001 350.2 65.5001 352.4 66.1001C354.6 66.7001 356.5 67.6001 358.3 68.7001C358.5 68.8001 358.7 69.0001 358.8 69.2001C358.9 69.4001 358.9 69.6001 358.9 69.8001C358.9 70.2001 358.7 70.6001 358.4 70.8001C358.1 71.0001 357.8 71.1001 357.6 71.1001C357.4 71.1001 357.3 71.1001 357.1 71.0001C357 70.9001 356.8 70.9001 356.7 70.8001C355.1 69.9001 353.4 69.2001 351.5 68.6001C349.6 68.0001 347.6 67.8001 345.5 67.8001C341.5 67.8001 338 68.7001 334.9 70.5001C331.8 72.3001 329.4 74.7001 327.7 77.8001C326 80.9001 325.1 84.4001 325.1 88.4001C325.1 92.4001 326 96.0001 327.7 99.1001C329.4 102.2 331.8 104.7 334.9 106.4C338 108.2 341.5 109 345.5 109C347.6 109 349.8 108.7 351.9 108C354 107.3 355.8 106.5 357.4 105.4L357.1 106.6V90.5001L358 91.3001H345.5C345.2 91.3001 344.9 91.2001 344.6 90.9001C344.3 90.6001 344.2 90.3001 344.2 90.0001C344.2 89.6001 344.3 89.3001 344.6 89.1001C344.9 88.9001 345.2 88.7001 345.5 88.7001H358.4C358.8 88.7001 359.1 88.8001 359.3 89.1001C359.5 89.4001 359.7 89.7001 359.7 90.0001V106.2C359.7 106.4 359.7 106.6 359.6 106.8C359.5 107 359.4 107.2 359.1 107.4C357.2 108.7 355.1 109.7 352.7 110.5C350.5 111.2 348.1 111.6 345.6 111.6Z" fill="#1A1A1A"/>
<path d="M382.8 111.6C379.4 111.6 376.6 111.1 374.2 109.9C371.8 108.7 369.5 107 367.2 104.8C367.1 104.7 367 104.6 366.9 104.4C366.8 104.3 366.8 104 366.8 103.8C366.8 103.5 367 103.1 367.3 102.8C367.6 102.5 367.9 102.3 368.3 102.3C368.7 102.3 369.1 102.5 369.4 102.9C371.1 104.9 373.1 106.4 375.4 107.4C377.7 108.4 380.1 108.9 382.6 108.9C384.8 108.9 386.7 108.5 388.5 107.8C390.2 107.1 391.6 106.1 392.6 104.8C393.6 103.5 394.1 102 394.1 100.2C394.1 98 393.5 96.2 392.3 94.9C391.1 93.6 389.6 92.5 387.8 91.6C386 90.7 384 89.9 382 89.2C380.4 88.6 378.8 88 377.3 87.3C375.8 86.7 374.4 85.9 373.1 84.9C371.9 84 370.9 82.8 370.1 81.4C369.4 80 369 78.3 369 76.2C369 74.1 369.6 72.2 370.7 70.5C371.8 68.8 373.5 67.4 375.6 66.4C377.7 65.4 380.3 64.9 383.2 64.9C385.7 64.9 388 65.3 390.4 66.2C392.7 67.1 394.6 68.4 395.9 70.2C396.3 70.8 396.5 71.3 396.5 71.6C396.5 71.9 396.3 72.2 396 72.5C395.7 72.8 395.3 73 394.9 73C394.6 73 394.3 72.9 394.1 72.6C393.3 71.6 392.4 70.7 391.3 69.9C390.2 69.1 389 68.6 387.6 68.2C386.2 67.8 384.8 67.6 383.2 67.6C381.1 67.6 379.2 67.9 377.5 68.6C375.8 69.3 374.4 70.3 373.4 71.5C372.4 72.8 371.9 74.3 371.9 76.2C371.9 78.2 372.5 79.8 373.6 81.1C374.7 82.4 376.2 83.4 378 84.3C379.8 85.1 381.6 85.9 383.4 86.6C385 87.2 386.7 87.8 388.3 88.4C389.9 89.1 391.4 89.9 392.7 90.9C394 91.9 395.1 93.1 395.8 94.6C396.6 96.1 397 98 397 100.3C397 102.3 396.4 104.1 395.3 105.8C394.2 107.5 392.6 108.8 390.5 109.9C388.2 111 385.7 111.6 382.8 111.6Z" fill="#1A1A1A"/>
<path d="M404.3 68.3001C404 68.3001 403.7 68.2001 403.4 67.9001C403.1 67.7001 403 67.4001 403 67.0001C403 66.7001 403.1 66.4001 403.4 66.1001C403.7 65.9001 404 65.7001 404.3 65.7001H435.6C435.9 65.7001 436.2 65.8001 436.5 66.1001C436.8 66.3001 436.9 66.6001 436.9 67.0001C436.9 67.4001 436.8 67.7001 436.5 67.9001C436.2 68.1001 435.9 68.2001 435.6 68.2001H404.3V68.3001ZM419.9 111C419.5 111 419.2 110.9 419 110.6C418.8 110.3 418.6 110 418.6 109.7V67.4001H421.2V109.7C421.2 110 421.1 110.3 420.8 110.6C420.6 110.9 420.3 111 419.9 111Z" fill="#1A1A1A"/>
<path d="M447.5 65.8H471.8C472.1 65.8 472.4 65.9 472.7 66.2C473 66.5 473.1 66.8001 473.1 67.1001C473.1 67.5001 473 67.8 472.7 68C472.4 68.2 472.1 68.4 471.8 68.4H448.3L448.9 67.3V87.3L448.1 86.4H469C469.3 86.4 469.6 86.5 469.9 86.8C470.2 87.1 470.3 87.4 470.3 87.7C470.3 88.1 470.2 88.4001 469.9 88.6001C469.6 88.8001 469.3 89 469 89H448.4L449 88.3V108.7L448.7 108.4H471.9C472.2 108.4 472.5 108.5 472.8 108.8C473.1 109.1 473.2 109.4 473.2 109.7C473.2 110.1 473.1 110.4 472.8 110.6C472.5 110.8 472.2 111 471.9 111H447.6C447.3 111 447 110.9 446.7 110.6C446.4 110.3 446.3 110 446.3 109.7V67.1001C446.3 66.8001 446.4 66.5 446.7 66.2C446.9 66 447.2 65.8 447.5 65.8Z" fill="#1A1A1A"/>
<path d="M516.1 65.8C516.5 65.8 516.8 65.9 517 66.2C517.2 66.4 517.3 66.7001 517.3 67.1001V109.6C517.3 110.1 517.2 110.4 516.9 110.7C516.6 110.9 516.3 111.1 516 111.1C515.8 111.1 515.6 111.1 515.5 111C515.3 110.9 515.1 110.8 515 110.6L485 69.6001L485.9 69.1001V109.9C485.9 110.2 485.8 110.5 485.5 110.7C485.3 110.9 485 111 484.6 111C484.2 111 483.9 110.9 483.7 110.7C483.5 110.5 483.4 110.2 483.4 109.9V67.1001C483.4 66.6001 483.5 66.3001 483.8 66.1001C484.1 65.9001 484.3 65.8 484.6 65.8C484.8 65.8 484.9 65.8 485.1 65.9C485.3 66 485.4 66.1 485.6 66.3L515.4 106.9L514.9 108.2V67C514.9 66.7 515 66.4001 515.3 66.1001C515.5 65.9001 515.8 65.8 516.1 65.8Z" fill="#1A1A1A"/>
</svg>

<svg width="518" height="168" fill="none" xmlns="http://www.w3.org/2000/svg"><path d="M69.2 119.7l-14.1 35.8-3.4-1.4 16.6-34.8.9.4z" fill="#6BBD48"/><path d="M60.5 113.9l-18.3 24.3-4.8-4 20.7-22.3 2.4 2z" fill="#D12767"/><path d="M6.2 108.6l2.1 5.8 16-6.7-1.7-4.3-16.4 5.2zm41.5-13.1l-21.4 6.7 1.6 4.3 20.9-8-1.1-3z" fill="#F9E75C"/><path d="M45.3 86.6L.6 89v-8.3l44.7 2.8v3.1z" fill="#D12767"/><path d="M71 47.1L52.6 7.6l11-4.2L73.9 46 71 47.1z" fill="#305BA7"/><path d="M83.9 46L82.5 0h6.2L87 46h-3.1z" fill="#6BBD48"/><path d="M102.8 51.8l14.1-27.3 5.4 3.1-16.8 25.8-2.7-1.6z" fill="#744E9F"/><path d="M112.9 60.1l32.8-29.3 3.7 4.8-34.8 26.9-1.7-2.4z" fill="#305BA7"/><path d="M120.7 74l43.7-12-1.7-5.8L120 71.7l.7 2.3z" fill="#F9E75C"/><path d="M123.3 79.7l36.4-3.1-.7-6.1-35.9 7.6.2 1.6z" fill="#744E9F"/><path d="M122.1 87.4l43.9 1.7v-6.2l-43.9 1.4v3.1z" fill="#D12767"/><path d="M113 110.3l31.8 29.2 3-3-34.2-26.9-.6.7z" fill="#6BBD48"/><path d="M102.3 118.5l-2.7 1.6 15.9 29.7 5.4-3.1-18.6-28.2z" fill="#33BFC8"/><path d="M97.7 120l-2.9 1.1 2.3 7.1 3.4-1.1-2.8-7.1zm16.7 42.2l-12.9-32.9-3.6 1.4 10.7 33.6 5.8-2.1z" fill="#D12767"/><path d="M88.3 122.7l6 43.2 6.1-1.1-10-42.3-2.1.2z" fill="#DB5937"/><path d="M42.9 45.6L24.6 28.9l-4 4.8L40 48.9l2.9-3.3zm3.2 2.8l-2.9 3.1 10.9 8.7 2-2.4-10-9.4z" fill="#33BFC8"/><path d="M75.8 17.8L75 7.4l-7.2 1.3 2.8 10 5.2-.9zm.6 5.9l-4.8.9 4.8 24.6 2.4-.5-2.4-25z" fill="#000"/><path d="M114.2 14.7l2.2-5.2-5.9-2.1-1.7 5.3 5.4 2zm-6.4.9L97.1 49.2l2.3 1 13.7-32.6-5.3-2z" fill="#F9E75C"/><path d="M120.9 46.2l21.4-22.9-4.8-4-19.8 24.2 3.2 2.7zm-6.5 1.4l-6.2 7.9 2.4 2.1 6.7-7.5-2.9-2.5z" fill="#D12767"/><path d="M138 93.2l-16.4-2.4-.6 3.1 16.4 3.5.6-4.2zm5.8.8l-.5 4.7 20.7 4.5 1.1-6.1-21.3-3.1z" fill="#DB5937"/><path d="M63.4 121.8l2.5-4.2-2.6-1.5-2.6 4 2.7 1.7zm-8.5 16l7.2-13.7-2.9-1.6-8.3 13.1 4 2.2zm-7.1 2.7l-8 12.8 5.4 3.1 7-13.4-4.4-2.5z" fill="#33BFC8"/><path d="M38.7 108.2l-28.6 15 3.1 5.4 27.4-17-1.9-3.4z" fill="#DB5937"/><path d="M109.5 113.8l-1.3 1 25.3 33.2 4.8-4-28.8-30.2z" fill="#305BA7"/><path d="M50 102.2l-6.8 3.3 1.4 2.3 6.6-3.7-1.2-1.9z" fill="#DB5937"/><path d="M52 23.6l-4 2.3 16.2 24.7 1.5-.8L52 23.6zm97.6 96.9l-3 4.9 6.3 3.9 3.1-5.4-6.4-3.4z" fill="#F9E75C"/><path d="M71.3 122.2l-11.5 42.4-3.8-1.2 14.4-41.5.9.3z" fill="#000"/><path d="M51.6 63.6L15.8 40.2 12 46.6 50.1 66l1.5-2.4z" fill="#DB5937"/><path d="M97.9 35.9l6.7-29.4-6.2-1.1-4 29.9 3.5.6z" fill="#D12667"/><path d="M19.3 56.7l-2.6 6.6 32.6 9.2.5-2.1-30.5-13.7z" fill="#6BBD48"/><path d="M12.8 98.9l20.7-4.2-.9-4.1-20.8 2.8 1 5.5z" fill="#000"/><path d="M74.4 128.5l-8.8 38 8.9 1.4 3.8-38.8-3.9-.6z" fill="#744E9F"/><path d="M152.2 107.2l-31.9-10.4-1.1 3 31.3 12.7 1.7-5.3z" fill="#000"/><path d="M121.4 65.8L159 50.5l-5.9-11.3-33.5 23 1.8 3.6z" fill="#33BFC8"/><path d="M59.6 50.2L38.3 20.4l-7.5 6.1 25.8 25.9 3-2.2z" fill="#D12767"/><path d="M41.5 89.4l-6.4.9.9 3.9 6.2-1.4-.7-3.4z" fill="#000"/><path d="M41.7 72.7L6.3 65.1l-.7 5.8 35.8 4.2.3-2.4z" fill="#744E9F"/><path d="M123.3 106.4l-1.8 3.1 21 13.3 2.8-4.6-22-11.8z" fill="#F9E75C"/><path d="M50.4 107.5L19 131.8l4 4.8 29.5-26.4-2.1-2.7zm34.9 48.4l-1.1-35.7h-1.8L81 155.9h4.3z" fill="#305BA7"/><path d="M189.5 68.3c-.3 0-.6-.1-.9-.4-.3-.2-.4-.5-.4-.9 0-.3.1-.6.4-.9.3-.2.6-.4.9-.4h31.3c.3 0 .6.1.9.4.3.2.4.5.4.9s-.1.7-.4.9c-.3.2-.6.3-.9.3h-31.3v.1zm15.6 42.7c-.4 0-.7-.1-.9-.4-.2-.3-.4-.6-.4-.9V67.4h2.6v42.3c0 .3-.1.6-.4.9-.2.3-.5.4-.9.4zm58.3-45.2c.4 0 .7.1.9.4.2.3.4.6.4.9V95c0 3.1-.8 5.8-2.3 8.4-1.5 2.5-3.5 4.5-6 6s-5.3 2.3-8.3 2.3c-3.1 0-5.8-.8-8.4-2.3-2.5-1.5-4.5-3.5-6-6s-2.3-5.3-2.3-8.4V67.1c0-.3.1-.6.4-.9.2-.3.6-.4 1-.4s.7.1 1 .4c.3.3.4.6.4.9V95c0 2.6.6 4.9 1.9 7.1 1.2 2.1 2.9 3.8 5.1 5.1 2.1 1.3 4.5 1.9 7 1.9 2.6 0 4.9-.6 7-1.9 2.1-1.3 3.8-3 5.1-5.1 1.3-2.1 1.9-4.5 1.9-7.1V67.1c0-.3.1-.6.4-.9.1-.2.4-.4.8-.4zm47.5 0c.4 0 .7.1.9.4.2.2.3.5.3.9v42.5c0 .5-.1.8-.4 1.1-.3.2-.6.4-.9.4-.2 0-.4 0-.5-.1-.2-.1-.4-.2-.5-.4l-29.9-40.9.9-.5V110c0 .3-.1.6-.4.8-.2.2-.5.3-.9.3s-.7-.1-.9-.3c-.2-.2-.3-.5-.3-.8V67.2c0-.5.1-.8.4-1 .3-.2.5-.3.8-.3.2 0 .3 0 .5.1s.3.2.5.4l29.8 40.6-.5 1.3V67.1c0-.3.1-.6.4-.9.1-.3.4-.4.7-.4zm34.7 45.8c-3.4 0-6.4-.6-9.3-1.7-2.8-1.1-5.3-2.8-7.4-4.8-2.1-2.1-3.7-4.5-4.8-7.4-1.1-2.8-1.7-5.9-1.7-9.3 0-3.4.6-6.5 1.7-9.3 1.1-2.8 2.8-5.3 4.8-7.4 2.1-2.1 4.5-3.7 7.4-4.8 2.8-1.1 5.9-1.7 9.3-1.7 2.4 0 4.6.3 6.8.9 2.2.6 4.1 1.5 5.9 2.6.2.1.4.3.5.5.1.2.1.4.1.6 0 .4-.2.8-.5 1-.3.2-.6.3-.8.3-.2 0-.3 0-.5-.1-.1-.1-.3-.1-.4-.2-1.6-.9-3.3-1.6-5.2-2.2-1.9-.6-3.9-.8-6-.8-4 0-7.5.9-10.6 2.7-3.1 1.8-5.5 4.2-7.2 7.3-1.7 3.1-2.6 6.6-2.6 10.6s.9 7.6 2.6 10.7c1.7 3.1 4.1 5.6 7.2 7.3 3.1 1.8 6.6 2.6 10.6 2.6 2.1 0 4.3-.3 6.4-1 2.1-.7 3.9-1.5 5.5-2.6l-.3 1.2V90.5l.9.8h-12.5c-.3 0-.6-.1-.9-.4-.3-.3-.4-.6-.4-.9 0-.4.1-.7.4-.9.3-.2.6-.4.9-.4h12.9c.4 0 .7.1.9.4.2.3.4.6.4.9v16.2c0 .2 0 .4-.1.6-.1.2-.2.4-.5.6-1.9 1.3-4 2.3-6.4 3.1-2.2.7-4.6 1.1-7.1 1.1zm37.2 0c-3.4 0-6.2-.5-8.6-1.7-2.4-1.2-4.7-2.9-7-5.1-.1-.1-.2-.2-.3-.4-.1-.1-.1-.4-.1-.6 0-.3.2-.7.5-1 .3-.3.6-.5 1-.5s.8.2 1.1.6c1.7 2 3.7 3.5 6 4.5s4.7 1.5 7.2 1.5c2.2 0 4.1-.4 5.9-1.1 1.7-.7 3.1-1.7 4.1-3 1-1.3 1.5-2.8 1.5-4.6 0-2.2-.6-4-1.8-5.3-1.2-1.3-2.7-2.4-4.5-3.3-1.8-.9-3.8-1.7-5.8-2.4-1.6-.6-3.2-1.2-4.7-1.9-1.5-.6-2.9-1.4-4.2-2.4-1.2-.9-2.2-2.1-3-3.5-.7-1.4-1.1-3.1-1.1-5.2s.6-4 1.7-5.7c1.1-1.7 2.8-3.1 4.9-4.1 2.1-1 4.7-1.5 7.6-1.5 2.5 0 4.8.4 7.2 1.3 2.3.9 4.2 2.2 5.5 4 .4.6.6 1.1.6 1.4 0 .3-.2.6-.5.9-.3.3-.7.5-1.1.5-.3 0-.6-.1-.8-.4-.8-1-1.7-1.9-2.8-2.7-1.1-.8-2.3-1.3-3.7-1.7-1.4-.4-2.8-.6-4.4-.6-2.1 0-4 .3-5.7 1-1.7.7-3.1 1.7-4.1 2.9-1 1.3-1.5 2.8-1.5 4.7 0 2 .6 3.6 1.7 4.9 1.1 1.3 2.6 2.3 4.4 3.2 1.8.8 3.6 1.6 5.4 2.3 1.6.6 3.3 1.2 4.9 1.8 1.6.7 3.1 1.5 4.4 2.5 1.3 1 2.4 2.2 3.1 3.7.8 1.5 1.2 3.4 1.2 5.7 0 2-.6 3.8-1.7 5.5-1.1 1.7-2.7 3-4.8 4.1-2.3 1.1-4.8 1.7-7.7 1.7zm21.5-43.3c-.3 0-.6-.1-.9-.4-.3-.2-.4-.5-.4-.9 0-.3.1-.6.4-.9.3-.2.6-.4.9-.4h31.3c.3 0 .6.1.9.4.3.2.4.5.4.9s-.1.7-.4.9c-.3.2-.6.3-.9.3h-31.3v.1zm15.6 42.7c-.4 0-.7-.1-.9-.4-.2-.3-.4-.6-.4-.9V67.4h2.6v42.3c0 .3-.1.6-.4.9-.2.3-.5.4-.9.4zm27.6-45.2h24.3c.3 0 .6.1.9.4.3.3.4.6.4.9 0 .4-.1.7-.4.9-.3.2-.6.4-.9.4h-23.5l.6-1.1v20l-.8-.9H469c.3 0 .6.1.9.4.3.3.4.6.4.9 0 .4-.1.7-.4.9-.3.2-.6.4-.9.4h-20.6l.6-.7v20.4l-.3-.3h23.2c.3 0 .6.1.9.4.3.3.4.6.4.9 0 .4-.1.7-.4.9-.3.2-.6.4-.9.4h-24.3c-.3 0-.6-.1-.9-.4-.3-.3-.4-.6-.4-.9V67.1c0-.3.1-.6.4-.9.2-.2.5-.4.8-.4zm68.6 0c.4 0 .7.1.9.4.2.2.3.5.3.9v42.5c0 .5-.1.8-.4 1.1-.3.2-.6.4-.9.4-.2 0-.4 0-.5-.1-.2-.1-.4-.2-.5-.4l-30-41 .9-.5v40.8c0 .3-.1.6-.4.8-.2.2-.5.3-.9.3s-.7-.1-.9-.3c-.2-.2-.3-.5-.3-.8V67.1c0-.5.1-.8.4-1 .3-.2.5-.3.8-.3.2 0 .3 0 .5.1s.3.2.5.4l29.8 40.6-.5 1.3V67c0-.3.1-.6.4-.9.2-.2.5-.3.8-.3z" fill="#1A1A1A"/></svg>
